resources/svg/id-o.svg

<svg xmlns="http://www.w3.org/2000/svg" viewBox="0 0 15 15" fill="none"><path d="M2 12.5V13H3V12.5H2ZM7 12.5V13H8V12.5H7ZM3 12.5V11.9999H2V12.5H3ZM7 11.9997V12.5H8V11.9997H7ZM5 10C6.10466 10 7 10.8952 7 11.9997H8C8 10.3427 6.65677 9 5 9V10ZM3 11.9999C3 10.8953 3.8954 10 5 10V9C3.34318 9 2 10.343 2 11.9999H3ZM5 4C3.89543 4 3 4.89543 3 6H4C4 5.44772 4.44772 5 5 5V4ZM7 6C7 4.89543 6.10457 4 5 4V5C5.55228 5 6 5.44772 6 6H7ZM5 8C6.10457 8 7 7.10457 7 6H6C6 6.55228 5.55228 7 5 7V8ZM5 7C4.44772 7 4 6.55228 4 6H3C3 7.10457 3.89543 8 5 8V7ZM1.5 3H13.5V2H1.5V3ZM14 3.5V11.5H15V3.5H14ZM13.5 12H1.5V13H13.5V12ZM1 11.5V3.5H0V11.5H1ZM1.5 12C1.22386 12 1 11.7761 1 11.5H0C0 12.3284 0.671574 13 1.5 13V12ZM14 11.5C14 11.7761 13.7761 12 13.5 12V13C14.3284 13 15 12.3284 15 11.5H14ZM13.5 3C13.7761 3 14 3.22386 14 3.5H15C15 2.67157 14.3284 2 13.5 2V3ZM1.5 2C0.671573 2 0 2.67157 0 3.5H1C1 3.22386 1.22386 3 1.5 3V2ZM9 6H12V5H9V6ZM9 9H12V8H9V9Z" fill="black"/></svg>

<svg xmlns="http://www.w3.org/2000/svg" viewBox="0 0 15 15" fill="none"><path d="M2 12.5v.5h1v-.5H2zm5 0v.5h1v-.5H7zm-4 0V12H2v.5h1zm4-.5v.5h1V12H7zm-2-2a2 2 0 012 2h1a3 3 0 00-3-3v1zm-2 2a2 2 0 012-2V9a3 3 0 00-3 3h1zm2-8a2 2 0 00-2 2h1a1 1 0 011-1V4zm2 2a2 2 0 00-2-2v1a1 1 0 011 1h1zM5 8a2 2 0 002-2H6a1 1 0 01-1 1v1zm0-1a1 1 0 01-1-1H3a2 2 0 002 2V7zM1.5 3h12V2h-12v1zm12.5.5v8h1v-8h-1zm-.5 8.5h-12v1h12v-1zM1 11.5v-8H0v8h1zm.5.5a.5.5 0 01-.5-.5H0A1.5 1.5 0 001.5 13v-1zm12.5-.5a.5.5 0 01-.5.5v1a1.5 1.5 0 001.5-1.5h-1zM13.5 3a.5.5 0 01.5.5h1A1.5 1.5 0 0013.5 2v1zm-12-1A1.5 1.5 0 000 3.5h1a.5.5 0 01.5-.5V2zM9 6h3V5H9v1zm0 3h3V8H9v1z" fill="currentColor"/></svg>
